pics/vert.svg

<?xml version="1.0" encoding="UTF-8" standalone="no"?>
<svg
   width="250"
   zoomAndPan="magnify"
   viewBox="0 0 187.5 374.999991"
   height="500"
   preserveAspectRatio="xMidYMid meet"
   version="1.0"
   id="svg19"
   sodipodi:docname="vert.svg"
   inkscape:version="1.4 (e7c3feb1, 2024-10-09)"
   xmlns:inkscape="http://www.inkscape.org/namespaces/inkscape"
   xmlns:sodipodi="http://sodipodi.sourceforge.net/DTD/sodipodi-0.dtd"
   xmlns="http://www.w3.org/2000/svg"
   xmlns:svg="http://www.w3.org/2000/svg">
  <sodipodi:namedview
     id="namedview19"
     pagecolor="#ffffff"
     bordercolor="#000000"
     borderopacity="0.25"
     inkscape:showpageshadow="2"
     inkscape:pageopacity="0.0"
     inkscape:pagecheckerboard="0"
     inkscape:deskcolor="#d1d1d1"
     inkscape:zoom="12.444787"
     inkscape:cx="259.02411"
     inkscape:cy="354.00364"
     inkscape:window-width="1104"
     inkscape:window-height="584"
     inkscape:window-x="1740"
     inkscape:window-y="178"
     inkscape:window-maximized="0"
     inkscape:current-layer="svg19" />
  <defs
     id="defs9">
    <clipPath
       id="ec017b8573">
      <path
         d="M 0 0.5 L 187 0.5 L 187 374.5 L 0 374.5 Z M 0 0.5 "
         clip-rule="nonzero"
         id="path1" />
    </clipPath>
    <clipPath
       id="1f60a9f555">
      <path
         d="M 45 0.546875 L 129.40625 0.546875 L 129.40625 188.246094 L 45 188.246094 Z M 45 0.546875 "
         clip-rule="nonzero"
         id="path2" />
    </clipPath>
    <clipPath
       id="5b47174236">
      <path
         d="M 29 0.546875 L 115 0.546875 L 115 188.246094 L 29 188.246094 Z M 29 0.546875 "
         clip-rule="nonzero"
         id="path3" />
    </clipPath>
    <clipPath
       id="c0f38896f0">
      <path
         d="M 15 0.546875 L 100 0.546875 L 100 188.246094 L 15 188.246094 Z M 15 0.546875 "
         clip-rule="nonzero"
         id="path4" />
    </clipPath>
    <clipPath
       id="6234cec98b">
      <path
         d="M 0.339844 0.546875 L 85 0.546875 L 85 188.246094 L 0.339844 188.246094 Z M 0.339844 0.546875 "
         clip-rule="nonzero"
         id="path5" />
    </clipPath>
    <clipPath
       id="f4b0ae8323">
      <path
         d="M 120 187.5 L 187 187.5 L 187 374.5 L 120 374.5 Z M 120 187.5 "
         clip-rule="nonzero"
         id="path6" />
    </clipPath>
    <clipPath
       id="c14e1750a2">
      <path
         d="M 105 187.5 L 187 187.5 L 187 374.5 L 105 374.5 Z M 105 187.5 "
         clip-rule="nonzero"
         id="path7" />
    </clipPath>
    <clipPath
       id="6bb3091907">
      <path
         d="M 90 187.5 L 175 187.5 L 175 374.5 L 90 374.5 Z M 90 187.5 "
         clip-rule="nonzero"
         id="path8" />
    </clipPath>
    <clipPath
       id="08bb2b277c">
      <path
         d="M 75.082031 187.5 L 160 187.5 L 160 374.5 L 75.082031 374.5 Z M 75.082031 187.5 "
         clip-rule="nonzero"
         id="path9" />
    </clipPath>
  </defs>
  <g
     clip-path="url(#1f60a9f555)"
     id="g12"
     transform="matrix(1,0,0,1.0072294,0,-1.3606198)">
    <path
       fill="#006434"
       d="m 54.578125,0.601562 0.03906,48.660157 c -0.0039,2.796875 1.074218,5.414062 3.042968,7.382812 1.964844,1.972657 4.582032,3.054688 7.367188,3.054688 h 2.308594 c 16.648437,0 32.304687,6.476562 44.085942,18.238281 11.78125,11.757812 18.28906,27.39844 18.32031,44.04688 v 66.22265 h -9.38281 l 0.004,-66.21484 C 120.30469,92.820312 96.519531,69.082031 67.335938,69.082031 h -2.308594 c -5.292969,0 -10.265625,-2.0625 -14.007813,-5.808593 -3.738281,-3.746094 -5.792969,-8.726563 -5.78125,-14.015626 L 45.195312,0.609375 Z m 0,0"
       fill-opacity="1"
       fill-rule="nonzero"
       id="path12" />
  </g>
  <g
     clip-path="url(#5b47174236)"
     id="g13"
     transform="matrix(1,0,0,1.0099396,0,-1.8706964)">
    <path
       fill="#c0c0c0"
       d="m 39.269531,0.585938 0.203125,48.886718 c 0.05078,13.917969 11.414063,25.234375 25.328125,25.234375 h 0.980469 c 26.925781,0 48.87891,21.90625 48.93359,48.835939 l 0.004,64.66406 h -9.37891 l -0.004,-64.65625 C 105.28906,101.79688 87.542969,84.089844 65.78125,84.089844 h -0.980469 c -19.070312,0 -34.636719,-15.515625 -34.707031,-34.582032 L 29.890625,0.625 Z m 0,0"
       fill-opacity="1"
       fill-rule="nonzero"
       id="path13" />
  </g>
  <g
     clip-path="url(#c0f38896f0)"
     id="g14"
     transform="matrix(1,0,0,1.0072292,0,-1.360648)">
    <path
       fill="#e7e7e7"
       d="m 15.097656,0.605469 9.382813,0.003906 -0.01172,48.613281 c -0.03906,10.816406 4.136719,20.976563 11.761719,28.628906 7.625,7.652344 17.769531,11.863282 28.570312,11.863282 19.042969,0 34.582031,15.492186 34.644531,34.531246 l 0.09766,63.95313 -9.382813,0.0156 -0.09766,-63.94531 c -0.04297,-13.8789 -11.375,-25.171874 -25.261719,-25.171874 -13.3125,0 -25.820312,-5.195312 -35.214843,-14.625 -9.398438,-9.429687 -14.546876,-21.957031 -14.5,-35.265625 z m 0,0"
       fill-opacity="1"
       fill-rule="nonzero"
       id="path14" />
  </g>
  <g
     clip-path="url(#6234cec98b)"
     id="g15"
     transform="matrix(1,0,0,1.0081327,0,-1.5306971)">
    <path
       fill="#ff8200"
       d="M 9.367188,0.601562 9.40625,49.269531 C 9.378906,64.085938 15.125,78.003906 25.582031,88.480469 36.039062,98.957031 49.949219,104.72266 64.75,104.72266 c 10.792969,0 19.601562,8.78125 19.640625,19.57422 l 0.125,63.89843 -9.378906,0.0195 -0.125,-63.89062 c -0.01953,-5.63281 -4.625,-10.21875 -10.261719,-10.21875 -17.3125,0 -33.578125,-6.74609 -45.808594,-19.000001 C 6.714844,82.855469 -0.00390625,66.574219 0.0273438,49.265625 L -0.015625,0.609375 Z m 0,0"
       fill-opacity="1"
       fill-rule="nonzero"
       id="path15" />
  </g>
  <g
     clip-path="url(#f4b0ae8323)"
     id="g16">
    <path
       fill="#006434"
       d="M 129.78125 187.601562 L 129.824219 236.371094 C 129.816406 239.171875 130.898438 241.796875 132.871094 243.773438 C 134.84375 245.746094 137.464844 246.835938 140.253906 246.835938 L 142.570312 246.835938 C 159.253906 246.835938 174.945312 253.324219 186.753906 265.109375 C 198.5625 276.894531 205.085938 292.574219 205.117188 309.257812 L 205.113281 375.628906 L 195.714844 375.628906 L 195.714844 309.265625 C 195.660156 280.027344 171.816406 256.234375 142.570312 256.234375 L 140.253906 256.234375 C 134.949219 256.234375 129.964844 254.167969 126.21875 250.414062 C 122.46875 246.660156 120.410156 241.671875 120.421875 236.367188 L 120.378906 187.613281 Z M 129.78125 187.601562 "
       fill-opacity="1"
       fill-rule="nonzero"
       id="path16" />
  </g>
  <g
     clip-path="url(#c14e1750a2)"
     id="g17"
     transform="matrix(1,0,0,1.0063491,0,-1.1910028)">
    <path
       fill="#c0c0c0"
       d="m 114.44141,187.58594 0.20312,48.99609 c 0.0508,13.94922 11.4375,25.29297 25.38281,25.29297 h 0.98438 c 26.98437,0 48.98828,21.95703 49.04297,48.94531 l 0.004,64.8086 h -9.39843 l -0.008,-64.80079 c -0.043,-21.80468 -17.82812,-39.55078 -39.64453,-39.55078 h -0.98047 c -19.10937,0 -34.71484,-15.54687 -34.78515,-34.65625 l -0.20313,-48.99218 z m 0,0"
       fill-opacity="1"
       fill-rule="nonzero"
       id="path17" />
  </g>
  <g
     clip-path="url(#6bb3091907)"
     id="g18"
     transform="matrix(1,0,0,1.0063498,0,-1.1912513)">
    <path
       fill="#e7e7e7"
       d="m 90.214844,187.60547 9.402344,0.004 -0.01172,48.72266 c -0.03906,10.83984 4.148441,21.02734 11.789061,28.69531 7.64063,7.66797 17.80859,11.89063 28.63672,11.89063 19.08203,0 34.65625,15.52344 34.71875,34.60547 l 0.0977,64.09765 -9.40235,0.0156 -0.0977,-64.08985 c -0.043,-13.90625 -11.40235,-25.22656 -25.32032,-25.22656 -13.33984,0 -25.875,-5.20703 -35.29296,-14.66015 -9.417974,-9.44922 -14.57813,-22.00391 -14.531255,-35.34375 z m 0,0"
       fill-opacity="1"
       fill-rule="nonzero"
       id="path18" />
  </g>
  <g
     clip-path="url(#08bb2b277c)"
     id="g19"
     transform="matrix(1,0,0,1.0063496,0,-1.1912016)">
    <path
       fill="#ff8200"
       d="m 84.46875,187.60156 0.03906,48.77735 c -0.02344,14.84765 5.734376,28.80078 16.210938,39.30078 10.48047,10.49609 24.42188,16.28125 39.25781,16.28125 10.81641,0 19.64844,8.79687 19.6875,19.61718 l 0.125,64.04297 -9.40234,0.0156 -0.125,-64.03516 c -0.0195,-5.64453 -4.63281,-10.24219 -10.28516,-10.24219 -17.34765,0 -33.65234,-6.76171 -45.910154,-19.03906 C 81.808594,270.04297 75.078125,253.72656 75.109375,236.375 l -0.04297,-48.76563 z m 0,0"
       fill-opacity="1"
       fill-rule="nonzero"
       id="path19" />
  </g>
</svg>

<svg xmlns="http://www.w3.org/2000/svg" xmlns:xlink="http://www.w3.org/1999/xlink" width="250" zoomAndPan="magnify" viewBox="0 0 187.5 374.999991" height="500" preserveAspectRatio="xMidYMid meet" version="1.0"><defs><clipPath id="ec017b8573"><path d="M 0 0.5 L 187 0.5 L 187 374.5 L 0 374.5 Z M 0 0.5 " clip-rule="nonzero"/></clipPath><clipPath id="1f60a9f555"><path d="M 45 0.546875 L 129.40625 0.546875 L 129.40625 188.246094 L 45 188.246094 Z M 45 0.546875 " clip-rule="nonzero"/></clipPath><clipPath id="5b47174236"><path d="M 29 0.546875 L 115 0.546875 L 115 188.246094 L 29 188.246094 Z M 29 0.546875 " clip-rule="nonzero"/></clipPath><clipPath id="c0f38896f0"><path d="M 15 0.546875 L 100 0.546875 L 100 188.246094 L 15 188.246094 Z M 15 0.546875 " clip-rule="nonzero"/></clipPath><clipPath id="6234cec98b"><path d="M 0.339844 0.546875 L 85 0.546875 L 85 188.246094 L 0.339844 188.246094 Z M 0.339844 0.546875 " clip-rule="nonzero"/></clipPath><clipPath id="f4b0ae8323"><path d="M 120 187.5 L 187 187.5 L 187 374.5 L 120 374.5 Z M 120 187.5 " clip-rule="nonzero"/></clipPath><clipPath id="c14e1750a2"><path d="M 105 187.5 L 187 187.5 L 187 374.5 L 105 374.5 Z M 105 187.5 " clip-rule="nonzero"/></clipPath><clipPath id="6bb3091907"><path d="M 90 187.5 L 175 187.5 L 175 374.5 L 90 374.5 Z M 90 187.5 " clip-rule="nonzero"/></clipPath><clipPath id="08bb2b277c"><path d="M 75.082031 187.5 L 160 187.5 L 160 374.5 L 75.082031 374.5 Z M 75.082031 187.5 " clip-rule="nonzero"/></clipPath></defs><g clip-path="url(#ec017b8573)"><path fill="#ffffff" d="M 0 0.5 L 187 0.5 L 187 374.5 L 0 374.5 Z M 0 0.5 " fill-opacity="1" fill-rule="nonzero"/><path fill="#ffffff" d="M 0 0.5 L 187 0.5 L 187 374.5 L 0 374.5 Z M 0 0.5 " fill-opacity="1" fill-rule="nonzero"/></g><g clip-path="url(#1f60a9f555)"><path fill="#006434" d="M 54.578125 0.601562 L 54.617188 49.261719 C 54.613281 52.058594 55.691406 54.675781 57.660156 56.644531 C 59.625 58.617188 62.242188 59.699219 65.027344 59.699219 L 67.335938 59.699219 C 83.984375 59.699219 99.640625 66.175781 111.421875 77.9375 C 123.203125 89.695312 129.710938 105.335938 129.742188 121.984375 L 129.742188 188.207031 L 120.359375 188.207031 L 120.363281 121.992188 C 120.304688 92.820312 96.519531 69.082031 67.335938 69.082031 L 65.027344 69.082031 C 59.734375 69.082031 54.761719 67.019531 51.019531 63.273438 C 47.28125 59.527344 45.226562 54.546875 45.238281 49.257812 L 45.195312 0.609375 Z M 54.578125 0.601562 " fill-opacity="1" fill-rule="nonzero"/></g><g clip-path="url(#5b47174236)"><path fill="#c0c0c0" d="M 39.269531 0.585938 L 39.472656 49.472656 C 39.523438 63.390625 50.886719 74.707031 64.800781 74.707031 L 65.78125 74.707031 C 92.707031 74.707031 114.660156 96.613281 114.714844 123.542969 L 114.71875 188.207031 L 105.339844 188.207031 L 105.335938 123.550781 C 105.289062 101.796875 87.542969 84.089844 65.78125 84.089844 L 64.800781 84.089844 C 45.730469 84.089844 30.164062 68.574219 30.09375 49.507812 L 29.890625 0.625 Z M 39.269531 0.585938 " fill-opacity="1" fill-rule="nonzero"/></g><g clip-path="url(#c0f38896f0)"><path fill="#e7e7e7" d="M 15.097656 0.605469 L 24.480469 0.609375 L 24.46875 49.222656 C 24.429688 60.039062 28.605469 70.199219 36.230469 77.851562 C 43.855469 85.503906 54 89.714844 64.800781 89.714844 C 83.84375 89.714844 99.382812 105.207031 99.445312 124.246094 L 99.542969 188.199219 L 90.160156 188.214844 L 90.0625 124.269531 C 90.019531 110.390625 78.6875 99.097656 64.800781 99.097656 C 51.488281 99.097656 38.980469 93.902344 29.585938 84.472656 C 20.1875 75.042969 15.039062 62.515625 15.085938 49.207031 Z M 15.097656 0.605469 " fill-opacity="1" fill-rule="nonzero"/></g><g clip-path="url(#6234cec98b)"><path fill="#ff8200" d="M 9.367188 0.601562 L 9.40625 49.269531 C 9.378906 64.085938 15.125 78.003906 25.582031 88.480469 C 36.039062 98.957031 49.949219 104.722656 64.75 104.722656 C 75.542969 104.722656 84.351562 113.503906 84.390625 124.296875 L 84.515625 188.195312 L 75.136719 188.214844 L 75.011719 124.324219 C 74.992188 118.691406 70.386719 114.105469 64.75 114.105469 C 47.4375 114.105469 31.171875 107.359375 18.941406 95.105469 C 6.714844 82.855469 -0.00390625 66.574219 0.0273438 49.265625 L -0.015625 0.609375 Z M 9.367188 0.601562 " fill-opacity="1" fill-rule="nonzero"/></g><g clip-path="url(#f4b0ae8323)"><path fill="#006434" d="M 129.78125 187.601562 L 129.824219 236.371094 C 129.816406 239.171875 130.898438 241.796875 132.871094 243.773438 C 134.84375 245.746094 137.464844 246.835938 140.253906 246.835938 L 142.570312 246.835938 C 159.253906 246.835938 174.945312 253.324219 186.753906 265.109375 C 198.5625 276.894531 205.085938 292.574219 205.117188 309.257812 L 205.113281 375.628906 L 195.714844 375.628906 L 195.714844 309.265625 C 195.660156 280.027344 171.816406 256.234375 142.570312 256.234375 L 140.253906 256.234375 C 134.949219 256.234375 129.964844 254.167969 126.21875 250.414062 C 122.46875 246.660156 120.410156 241.671875 120.421875 236.367188 L 120.378906 187.613281 Z M 129.78125 187.601562 " fill-opacity="1" fill-rule="nonzero"/></g><g clip-path="url(#c14e1750a2)"><path fill="#c0c0c0" d="M 114.441406 187.585938 L 114.644531 236.582031 C 114.695312 250.53125 126.082031 261.875 140.027344 261.875 L 141.011719 261.875 C 167.996094 261.875 190 283.832031 190.054688 310.820312 L 190.058594 375.628906 L 180.660156 375.628906 L 180.652344 310.828125 C 180.609375 289.023438 162.824219 271.277344 141.007812 271.277344 L 140.027344 271.277344 C 120.917969 271.277344 105.3125 255.730469 105.242188 236.621094 L 105.039062 187.628906 Z M 114.441406 187.585938 " fill-opacity="1" fill-rule="nonzero"/></g><g clip-path="url(#6bb3091907)"><path fill="#e7e7e7" d="M 90.214844 187.605469 L 99.617188 187.609375 L 99.605469 236.332031 C 99.566406 247.171875 103.753906 257.359375 111.394531 265.027344 C 119.035156 272.695312 129.203125 276.917969 140.03125 276.917969 C 159.113281 276.917969 174.6875 292.441406 174.75 311.523438 L 174.847656 375.621094 L 165.445312 375.636719 L 165.347656 311.546875 C 165.304688 297.640625 153.945312 286.320312 140.027344 286.320312 C 126.6875 286.320312 114.152344 281.113281 104.734375 271.660156 C 95.316406 262.210938 90.15625 249.65625 90.203125 236.316406 Z M 90.214844 187.605469 " fill-opacity="1" fill-rule="nonzero"/></g><g clip-path="url(#08bb2b277c)"><path fill="#ff8200" d="M 84.46875 187.601562 L 84.507812 236.378906 C 84.484375 251.226562 90.242188 265.179688 100.71875 275.679688 C 111.199219 286.175781 125.140625 291.960938 139.976562 291.960938 C 150.792969 291.960938 159.625 300.757812 159.664062 311.578125 L 159.789062 375.621094 L 150.386719 375.636719 L 150.261719 311.601562 C 150.242188 305.957031 145.628906 301.359375 139.976562 301.359375 C 122.628906 301.359375 106.324219 294.597656 94.066406 282.320312 C 81.808594 270.042969 75.078125 253.726562 75.109375 236.375 L 75.066406 187.609375 Z M 84.46875 187.601562 " fill-opacity="1" fill-rule="nonzero"/></g></svg>
